X:1
T:Title
%%score { 1 | 2 }
L:1/8
M:4/4
K:Eb
V:1 treble nm="Grand Piano"
V:2 bass 
V:1
 z4 z2[Q:1/4=94] G2 | G3 G FE A>G | G6 G2 | [GB]3 [Ac] [GB]GGE |[M:3/4] F6 |[M:1/4] A2 | %6
[M:4/4] G3 G AG F>E | c6 c2 | [GB]3 E G[CF]ED |[M:3/4] E6 |] %10
V:2
 z4 z2 [E,B,E]2 | [E,B,E]3 [E,B,E] [A,B,D][G,B,] [F,B,E]>[E,B,E] | [E,B,E]6 [E,B,E]2 | %3
 [E,E]3 [A,E] [E,E][E,B,E][E,B,E][G,B,] |[M:3/4][K:treble] [B,D]6 |[M:1/4] F2 | %6
[M:4/4][K:bass] [E,B,E]3 [E,B,E] [E,CE][E,B,E] [A,B,D]>[G,B,] | [A,E]6 [A,EA]2 | %8
 [E,E]3 [E,G,] [E,B,E][A,,A,][B,,G,B,][B,,A,B,] |[M:3/4] [E,G,B,]6 |] %10

